includes/assets/cb-disabled.svg

<svg width="114" height="103" viewBox="0 0 114 103" fill="none" xmlns="http://www.w3.org/2000/svg">
<path opacity="0.04" d="M69.1423 91.7435C87.7904 87.8853 102.473 73.7875 105.933 56.077C106.493 53.2093 106.727 50.4565 106.566 47.9719C105.687 34.7317 99.5982 36.4476 90.1849 36.0009C80.7716 35.5542 83.7133 28.1453 86.0898 15.8057C88.4664 3.46611 61.7322 1.10202 44.517 18.2912C27.3019 35.4804 2.84795 9.98546 9.1313 64.775C12.9195 97.7887 48.3534 96.0469 69.1423 91.7435Z" fill="#2A2A2A"/>
<path fill-rule="evenodd" clip-rule="evenodd" d="M32.2852 30.3736L32.285 34.996H34.9981C35.2519 34.996 35.3661 35.0444 35.3969 35.0589C35.4308 35.075 35.4471 35.0904 35.4599 35.1053C35.4727 35.1202 35.483 35.1365 35.4897 35.1491L43.6247 66.1506L43.6354 66.1865L45.8506 65.5277C43.6354 66.1865 43.6357 66.1877 43.6361 66.1889L43.6368 66.1914L43.6383 66.1964L43.6415 66.207L43.6489 66.2305L43.6671 66.2864C43.681 66.3274 43.6983 66.3762 43.7194 66.4316C43.7616 66.5419 43.8201 66.6809 43.8986 66.8392C44.0535 67.1518 44.2981 67.5633 44.6687 67.9786C45.4525 68.8571 46.7325 69.6635 48.5637 69.6635H73.8861V65.0412H48.5637C48.2395 65.0412 48.1553 64.9444 48.1221 64.9063L48.1178 64.9014C48.0891 64.8692 48.0664 64.8346 48.0509 64.8069L47.3471 62.1247L73.6955 55.7313C75.8357 55.212 77.3302 53.6304 78.0152 51.636C78.9691 48.8583 80.1853 43.2177 80.7798 40.0439L81.2925 37.3071H40.8349L39.9493 33.9322L39.9479 33.9269L39.9468 33.9228L39.9332 33.872C39.921 33.828 39.9057 33.7761 39.8866 33.7173C39.8486 33.6003 39.795 33.4534 39.721 33.2867C39.5746 32.9569 39.3374 32.5243 38.9625 32.089C38.1579 31.1546 36.8536 30.3737 34.9983 30.3736H32.2852ZM72.6055 51.2393L46.2457 57.6355L42.2002 41.9295H75.6916C75.0741 44.8809 74.2657 48.3229 73.6435 50.1346C73.3927 50.8647 72.9937 51.1451 72.6055 51.2393Z" fill="#2A2A2A"/>
<ellipse cx="46.152" cy="76.597" rx="4.62234" ry="4.62234" fill="#2A2A2A"/>
<ellipse cx="69.2637" cy="76.597" rx="4.62234" ry="4.62234" fill="#2A2A2A"/>
</svg>

<svg xmlns="http://www.w3.org/2000/svg" width="98.493" height="91.081" viewBox="0 0 98.493 91.081"><defs><style>.a,.b,.c{fill:#2a2a2a;}.a{opacity:0.04;}.b,.d{fill-rule:evenodd;}.d,.e{fill:#ff2f4d;}</style></defs><g transform="translate(-1000.033 -9674)"><g transform="translate(991.91 9671.024)"><path class="a" d="M69.142,91.743c18.648-3.858,33.331-17.956,36.791-35.667a32.054,32.054,0,0,0,.633-8.105C105.687,34.732,99.6,36.448,90.185,36s-6.472-7.856-4.1-20.2S61.732,1.1,44.517,18.291,2.848,9.985,9.131,64.775C12.92,97.789,48.353,96.047,69.142,91.743Z"/><path class="b" d="M32.285,30.374V35H35a.938.938,0,0,1,.4.063.174.174,0,0,1,.063.046.249.249,0,0,1,.03.044l8.135,31,.011.036,2.215-.659c-2.215.659-2.215.66-2.215.661v0l0,.005,0,.011.007.023.018.056c.014.041.031.09.052.145.042.11.1.249.179.408a5.159,5.159,0,0,0,.77,1.139,5.089,5.089,0,0,0,3.9,1.685H73.886V65.041H48.564c-.324,0-.408-.1-.442-.135l0,0a.545.545,0,0,1-.067-.094l-.7-2.682L73.7,55.731a6.089,6.089,0,0,0,4.32-4.1A107.272,107.272,0,0,0,80.78,40.044l.513-2.737H40.835l-.886-3.375v-.009l-.014-.051c-.012-.044-.028-.1-.047-.155a4.464,4.464,0,0,0-.166-.431,4.869,4.869,0,0,0-.758-1.2A5.071,5.071,0,0,0,35,30.374Zm40.32,20.866-26.36,6.4L42.2,41.93H75.692a84.2,84.2,0,0,1-2.048,8.205A1.489,1.489,0,0,1,72.605,51.239Z"/><circle class="c" cx="4.622" cy="4.622" r="4.622" transform="translate(41.53 71.975)"/><circle class="c" cx="4.622" cy="4.622" r="4.622" transform="translate(64.641 71.975)"/></g><g transform="translate(1038.263 9673.643)"><path class="d" d="M12.575,1.16a1.625,1.625,0,0,1,3.025.825V9.479h4.035a1.625,1.625,0,0,1,1.4,2.45l-7.61,12.91a1.625,1.625,0,0,1-3.025-.825V16.521H6.365a1.625,1.625,0,0,1-1.4-2.45Zm.858,2.811L7.313,14.354h3.629a1.625,1.625,0,0,1,1.625,1.625v6.05l6.121-10.383H15.059a1.625,1.625,0,0,1-1.625-1.625Z"/><path class="e" d="M11.323,15.516l.419,8.387,7.968-13-5.032-.839L13.419,2.1,6.29,15.516Z"/></g></g></svg>
